X: 5385
T: Bucks Of Oranmore, The
R: reel
M: 4/4
K: Dmajor
|:"D"A2 FA A2dB|A2FA "G"BEE2|1 "D"A2 FA A2Bd|"G"egfd "A"edBd:|2 "D"DEFG A2AB|"G"defd "A"edBd||
|:"D"ADDD ADBD|ADFA "G"BEE2|1 "D"ADFG A2AB|"G"defd "A"edBd:|2 "D"DEFG A2AB|"G"defd "A"edef||
|:"D"a2fd edef|a2fd "G"edBd|1 "D"a2fd e2ef|"G"gefd "A"edBd:|2 "D"faaf bfaf|"G"gefd "A"edBd||
|:"D"f2df "A"edde|"D"f2df edBd|1 "D"f2df "A"edef|"G"gefd "A"edBd:|2 "D"faaf bfaf|"G"gefd "A"edBd||
|:"D"Adfd edfd|Adfd "G"edBd|1 "D"Adfd edef|"G"ge fd "A"edBd:|2 "D" faaf bfaf|"G"gefd "A"edBd||

